X: 1
T: la Montagnarde  [C]
O: central France
M: 6/8
L: 1/8
K: C
G \
| "C"c/d/e~e c/d/e~e | c/e/gf "G"~e2d \
| "C"c/d/e~e c/d/e~e | c/e/gf "G"d2 :|
|: G \
| "C"c2~B "Am"ABc | "Dm"d2f "G7"~ed2 \
| "C"c2~B "Am"ABc | "G7"de~d "C"c2 :|


